X:83
T: Ardeleana
O:rumania
Z: John Chambers <jc@trillian.mit.edu>
N: The final 'a' should have a short mark over it.
M: 7/16
L: 1/16
K: D
|: "D"(4ABAG FG A2 |    f2e d2 c2  |  "G"B2A    GA BG | "D"(4ABAG FE D2 |
|  "D"(4ABAG FG A2 |    f2e d4     | "A7"(4efge fd ec | "D"d3     d4 :|
|: "D"fga    fd ef | "G"g2f ed cd  |      B2A   GA BG | "D"A2G    FE D2 |
|  "D"(4ABAG FG A2 |    f2e dc d^d | "A7"(4efge fd ec | "D"d3     d4 :|
